X:6173
T:George White's Favourite
T:Carrowcastle Lasses
R:reel
H:Also played in D, #789
D:Matt Molloy & Sean Keane: Contentment is Wealth
D:Kevin Crawford: 'd' flute album
Z:id:hn-reel-472
M:C|
K:G
eB~B2 eBdB|AGAB GEDE|GB~B2 eB~B2|eBdB A2Bd|
eB~B2 eBdB|AGAB GEDE|GABd gedB|1 AGAB G2Bd:|2 AGAB G4||
|:gede gaba|gfga gedB|dega bgag|eaag a2ga|
bgeg d2de|gede gaba|~g3d egdB|1 AGAB G4:|2 AGAB G2Bd||
"variations"
|:eB~B2 eBdB|~A3B GEDE|~G3A BGBd|gedB ABcd|
eB~B2 eBdB|AGAB GEDE|G2Bd egdB|1 AGAB G2Bd:|2 AGAB G4||
|:gede gaba|~g3a gedB|dega bgag|eaag a2ga|
bg~g2 egde|gede gaba|gd~d2 egdB|1 AGAB G4:|2 AGAB G2Bd||


